dist/img/svg/features-bg.svg

<?xml version="1.0" encoding="UTF-8"?>
<svg width="136px" height="109px" viewBox="0 0 136 109" version="1.1" xmlns="http://www.w3.org/2000/svg" xmlns:xlink="http://www.w3.org/1999/xlink">
    <defs>
        <polygon id="path-1" points="41.5567396 0.207859628 0.176604369 0.207859628 0.176604369 23.7012183 41.5567396 23.7012183 41.5567396 0.207859628"></polygon>
        <polygon id="path-3" points="23.3411674 5.06798525 23.3411674 0.0146710501 0.130876395 0.0146710501 0.130876395 5.06798525 23.3411674 5.06798525"></polygon>
        <polygon id="path-5" points="15.1536229 4.01153319 15.1536229 0.109433886 0.148681966 0.109433886 0.148681966 4.01153319 15.1536229 4.01153319"></polygon>
        <polygon id="path-7" points="50.5330519 51.313116 50.5330519 0.63 0 0.63 0 61.3333333 50.5330519 61.3333333 50.5330519 51.313116 40.5975765 51.313116 40.5975765 61.3333108 50.5331893 61.3333108 50.5331893 51.313116"></polygon>
    </defs>
    <g id="Page-1" stroke="none" stroke-width="1" fill="none" fill-rule="evenodd">
        <g id="Blue" transform="translate(-131.000000, -1055.000000)">
            <g id="Group-10" transform="translate(131.000000, 1055.000000)">
                <g id="Group-8">
                    <g id="Page-1" transform="translate(59.000000, 55.000000)">
                        <g id="Group-3" transform="translate(5.462089, 0.029224)">
                            <mask id="mask-2" fill="white">
                                <use xlink:href="#path-1"></use>
                            </mask>
                            <g id="Clip-2"></g>
                            <path d="M4.38183004,1.26609503 C4.88054249,0.559798922 5.76635079,0.225611835 6.61416195,0.289605107 C17.4694695,0.282494744 28.3247771,0.19480026 39.1824595,0.211391108 C41.0609431,0.0999954127 42.3124738,2.59573302 41.0395697,4.003585 C40.2938758,5.07724989 38.8856069,4.99429565 37.7314438,4.95874384 C36.3825454,4.95637371 35.0312721,4.93504262 33.6847485,4.96111396 C32.4688401,4.96348408 31.4547914,6.13195382 31.5379102,7.32412478 C31.4904137,8.09441416 32.1007428,8.63717191 32.4498415,9.25814366 C30.4692406,10.9290791 28.4506426,12.5549822 26.4914152,14.2496189 C25.0831462,14.448709 23.6416298,14.1287427 22.2428601,14.4036767 C20.9105854,14.7568248 20.2147628,16.3519164 20.7799702,17.5891196 C21.1623165,18.437623 22.0766226,18.9993417 23.014677,18.9329783 C26.49379,18.9329783 29.9752778,18.9282381 33.4567657,18.925868 C34.3496984,18.9400887 35.2687542,18.8215826 36.1379388,19.0894063 C31.7611433,19.1794709 27.3795983,19.16051 23.0028029,19.2150227 C22.5064652,19.200802 22.071873,19.4567751 21.7061505,19.7625207 C20.1411433,21.0566069 18.6165082,22.4004656 17.0182535,23.6566298 C16.0754495,23.7466944 15.1278959,23.6708506 14.182717,23.6803311 C12.4538472,23.6732207 10.7249774,23.6779609 8.99610758,23.6803311 C6.85401888,23.6732207 4.71193019,23.6827012 2.57221631,23.6779609 C1.72915479,23.6945518 0.924090415,23.2252678 0.484748498,22.5166016 C0.404004578,22.3246217 0.323260658,22.135012 0.242516738,21.9477725 C0.157023176,21.5567025 0.161772818,21.1585221 0.216393705,20.7674521 C0.525120458,19.7459299 1.48217339,18.9614198 2.57221631,18.9898612 C3.86649385,19.0728155 5.05152961,17.949378 5.03965551,16.6552919 C5.04440515,15.5839971 4.25121488,14.564845 3.19204464,14.3515341 C2.43447668,14.2140671 1.65791016,14.311242 0.89321774,14.2804304 C2.57934077,12.6426767 4.44832504,11.2134936 6.2389402,9.69424596 C8.13167268,9.50226614 10.0481534,9.75112887 11.9432607,9.5757399 C13.2066655,9.42642226 14.1732177,8.1323361 13.9428601,6.88091211 C13.771873,5.7716954 12.7506999,4.87578959 11.6226598,4.88052984 C9.79167268,4.82364693 7.96068555,4.90660117 6.13207325,4.84971826 C5.16789585,4.81890669 4.14672275,4.07231851 4.09210186,3.05790665 C4.07310329,2.45589587 4.00423348,1.78041133 4.38183004,1.26609503" id="Fill-1" fill="#E1F4FF" mask="url(#mask-2)"></path>
                        </g>
                        <g id="Group-6" transform="translate(31.822604, 9.272696)">
                            <mask id="mask-4" fill="white">
                                <use xlink:href="#path-3"></use>
                            </mask>
                            <g id="Clip-5"></g>
                            <path d="M0.130876395,5.00614626 C2.09010386,3.31150961 4.10870186,1.68560648 6.08930272,0.0146710501 C6.65213534,0.182949654 7.21259313,0.408111166 7.81342289,0.367819106 C12.1688449,0.358338622 16.5266418,0.348858137 20.8820638,0.351228258 C21.8842383,0.29434535 22.8531654,0.939018311 23.1998893,1.8775863 C23.5941096,2.94888107 23.1405187,4.22874651 22.1264701,4.77387438 C21.3831511,5.17679498 20.5020924,5.03932796 19.6922784,5.06539929 C13.1710195,5.02984747 6.64976052,5.0891005 0.130876395,5.00614626" id="Fill-4" fill="#D4EFFE" mask="url(#mask-4)"></path>
                        </g>
                        <g id="Group-9" transform="translate(0.000000, 9.509708)" fill="#EAF8FF">
                            <path d="M0.249617454,3.50822967 C-0.614817454,1.89891739 0.902693276,-0.179678887 2.70280773,0.123696624 C5.59771474,0.163988685 8.49262175,0.118956382 11.3875288,0.149767957 L11.7010052,0.213761229 C9.91038999,1.73300891 8.04140572,3.16219198 6.35528269,4.79994572 C5.74257883,4.80468596 5.12987496,4.7975756 4.51954592,4.80468596 C3.03290787,4.77150426 1.0404329,5.15783402 0.249617454,3.50822967" id="Fill-7"></path>
                        </g>
                        <path d="M27.1682392,19.7917443 C27.5339617,19.4859987 27.9685539,19.2300256 28.4648916,19.2442463 C32.841687,19.1897336 37.223232,19.2086945 41.6000275,19.1186299 C42.7066941,19.4599274 43.4238901,20.6829099 43.1816584,21.8158278 C42.986923,22.9013433 41.9396269,23.7593272 40.8305854,23.7095546 C34.7130461,23.7142949 28.5978815,23.6953339 22.4803422,23.6858534 C24.0785969,22.4296892 25.603232,21.0858305 27.1682392,19.7917443" id="Fill-10" fill="#D3EFFE"></path>
                    </g>
                    <g id="Page-1" transform="translate(15.000000, 59.000000)" fill="#EFF9FF">
                        <path d="M16.4749,0 C17.0299,1.5825 17.2724,3.2825 17.7999,4.8825 C15.6524,5.055 13.4924,4.9275 11.3399,4.9575 C9.8699,5.0825 8.5099,3.6225 8.8149,2.165 C8.9724,1.075 9.9549,0.13 11.0774,0.1325 C12.8749,0.0575 14.6799,0.2325 16.4749,0" id="Fill-1"></path>
                        <path d="M1.4324,0.2875 C2.1899,0.015 3.0299,0.07 3.8199,0.1625 C5.4974,0.345 6.3699,2.6125 5.3399,3.9225 C4.6374,5.16 3.0274,5.05 1.8149,4.8975 C0.3274,4.5675 -0.4576,2.6775 0.2824,1.365 C0.5849,0.935 0.9674,0.5425 1.4324,0.2875" id="Fill-3"></path>
                    </g>
                    <g id="Page-1" transform="translate(29.000000, 24.000000)">
                        <g id="Group-3" transform="translate(4.101010, 0.087285)">
                            <mask id="mask-6" fill="white">
                                <use xlink:href="#path-5"></use>
                            </mask>
                            <g id="Clip-2"></g>
                            <path d="M1.38047811,0.269960656 C1.73589899,0.155862295 2.10889562,0.116518033 2.48384512,0.124386885 C6.06344108,0.124386885 9.6449899,0.0968459016 13.2245859,0.116518033 C14.2986599,0.0791409836 15.2340808,1.09815738 15.1481549,2.16832131 C15.1110505,3.15782951 14.226404,4.03323934 13.2323973,4.00569836 C9.5219596,4.01553443 5.80956902,4.0116 2.09717845,4.00373115 C1.36485522,4.02930492 0.644249158,3.61225574 0.314215488,2.95323934 C-0.0997912458,1.96176393 0.265393939,0.590616393 1.38047811,0.269960656" id="Fill-1" fill="#C7EBFE" mask="url(#mask-6)"></path>
                        </g>
                        <path d="M1.56795286,8.03527869 C2.59125253,7.97232787 3.62041077,7.98806557 4.6456633,8.00577049 C5.69825589,8.01954098 6.56142088,9.06609836 6.44815488,10.1087213 C6.37785185,11.0254426 5.58303704,11.8398689 4.6612862,11.869377 C3.73953535,11.9028197 2.81778451,11.8890492 1.89798653,11.8792131 C0.929367003,11.8949508 0.0486262626,11.0549508 0.00761616162,10.0831475 C-0.0822154882,9.13495082 0.634484848,8.18872131 1.56795286,8.03527869" id="Fill-4" fill="#C6EBFE"></path>
                    </g>
                    <g id="Page-1" transform="translate(88.000000, 50.000000)">
                        <path d="M41.3961039,0.931466667 C43.0651948,0.0581333333 45.3767532,1.4648 45.2111688,3.39813333 C45.3833766,5.49146667 42.6015584,6.9048 41.0119481,5.57146667 C39.3296104,4.51146667 39.6077922,1.73146667 41.3961039,0.931466667" id="Fill-1" fill="#FEBF2D"></path>
                        <path d="M5.25233766,35.8848 C5.86168831,34.6981333 5.83519481,32.7714667 7.49103896,32.5781333 C8.33220779,34.5181333 8.74948052,37.0181333 10.8954545,37.9848 C11.9551948,38.7581333 13.9620779,38.4448 14.1806494,40.0514667 C12.9487013,40.9981333 11.3590909,41.2248 10.0476623,42.0048 C8.48454545,43.1314667 8.2461039,45.2048 7.49103896,46.8581333 C5.35831169,46.3714667 5.98753247,43.5248 4.60987013,42.2314667 C3.35805195,40.7648 0.476883117,41.4781333 0,39.3181333 C1.8412987,38.3981333 4.49727273,38.1448 5.25233766,35.8848" id="Fill-3" fill="#90DFFE"></path>
                        <g id="Group-7" transform="translate(0.000000, 0.036467)">
                            <mask id="mask-8" fill="white">
                                <use xlink:href="#path-7"></use>
                            </mask>
                            <g id="Clip-6"></g>
                            <path d="M44.6879221,54.175 C43.1844156,54.7083333 42.7009091,56.875 43.8864935,57.975 C44.932987,59.195 47.1054545,58.755 47.6618182,57.2616667 C48.5625974,55.4816667 46.4762338,53.335 44.6879221,54.175 M43.508961,51.795 C46.972987,49.9883333 51.3642857,53.575 50.3972727,57.355 C49.8276623,60.9283333 45.0323377,62.6283333 42.3763636,60.1883333 C39.5415584,58.0416667 40.2237662,53.1083333 43.508961,51.795" id="Fill-5" fill="#9C85BA" mask="url(#mask-8)"></path>
                        </g>
                    </g>
                    <g id="Group-3" transform="translate(0.000000, 30.000000)" fill="#FD7661">
                        <path d="M3.232,1.97652 C3.224,1.31252 2.984,-0.03148 4,0.00052 C5.212,-0.01148 4.768,1.58452 4.772,2.36452 C4.368,3.04052 3.176,2.82052 3.232,1.97652" id="Fill-1"></path>
                        <path d="M0.484,3.21252 C1.244,3.21652 2.756,2.80452 2.792,3.96052 C2.824,5.00852 1.504,4.77252 0.82,4.76452 C-0.036,4.84052 -0.284,3.53252 0.484,3.21252" id="Fill-3"></path>
                        <path d="M5.656,3.21652 C6.428,3.21252 7.992,2.80052 7.992,3.99652 C7.988,5.02052 6.676,4.76452 5.996,4.76052 C5.168,4.82052 4.932,3.56852 5.656,3.21652" id="Fill-5"></path>
                        <path d="M3.704,5.21652 C5.164,4.87252 5.184,7.33252 4.344,7.92452 C2.884,8.26852 2.852,5.81652 3.704,5.21652" id="Fill-7"></path>
                    </g>
                    <path d="M52.7428551,0.213914069 C54.4197172,-0.764185198 55.9638779,1.87726851 54.2568565,2.79094208 C52.5679307,3.75732758 51.0418656,1.11001699 52.7428551,0.213914069" id="Fill-9" fill="#BDAED2"></path>
                    <path d="M108.699691,13.1514931 C106.872626,14.0202693 108.534173,16.9690353 110.240282,15.8783089 C112.14374,14.9968498 110.424899,12.0036938 108.699691,13.1514931 M108.088547,11.3124777 C110.393068,10.1773613 113.321465,12.314424 112.971331,14.8319726 C112.844009,17.4446427 109.39996,18.9856107 107.375546,17.2861069 C105.236543,15.8466018 105.682169,12.2193025 108.088547,11.3124777" id="Fill-1" fill="#4DCCFD"></path>
                    <path d="M3.1454069,57.0630419 C4.57158765,56.6872539 6.06568177,58.0544066 5.9977684,59.493138 C6.04780983,60.8316592 4.82536919,62.0234442 3.4992713,61.9983916 C2.05521861,62.0556546 0.700525621,60.573976 1.05796441,59.1352446 C2.29827698,58.3407213 1.85862728,60.3091349 2.68788526,60.6562915 C3.77449916,61.547446 5.47233338,60.1051357 4.77890214,58.8847192 C4.57873643,57.8253548 2.31972331,58.3693528 3.1454069,57.0630419" id="Fill-1" fill="#7ED536"></path>
                    <g id="Group-13" transform="translate(29.000000, 81.000000)" fill="#FEBF2D">
                        <path d="M3.07928571,2.45224286 C3.465,1.82867143 3.41357143,0.446528571 4.46785714,0.600814286 C4.93714286,2.59367143 6.33214286,4.0851 8.36357143,4.50295714 C8.71071429,5.58938571 7.155,5.51867143 6.56357143,5.92367143 C5.16857143,6.28367143 5.03357143,7.9101 4.47428571,8.99652857 C3.25285714,9.08652857 3.43928571,7.38938571 2.925,6.6501 C2.385,5.37081429 -0.00642857143,6.05224286 -9.96028313e-14,4.50938571 C1.08,3.95652857 2.68071429,3.82152857 3.07928571,2.45224286" id="Fill-11"></path>
                    </g>
                    <path d="M101.508487,36.1109921 C103.243652,35.9421374 104.998762,36.0145037 106.743899,36.0205342 C108.110092,36.0084731 109.383212,36.8738533 109.821989,38.0407597 C110.420322,39.518238 109.449693,41.303273 107.817574,41.809837 C106.604288,42.1294548 105.314549,41.9304475 104.071346,41.9847222 C102.552245,42.0148748 100.717358,42.1173937 99.7134886,40.853999 C98.1943881,39.2830476 99.2447946,36.4999608 101.508487,36.1109921" id="Fill-3" fill="#D0EEFE"></path>
                </g>
            </g>
        </g>
    </g>
</svg>

<svg width="136" height="109" xmlns="http://www.w3.org/2000/svg" xmlns:xlink="http://www.w3.org/1999/xlink"><defs><path id="path-1" d="M41.557.208H.177V23.7h41.38V.208z"/><path id="path-3" d="M23.341 5.068V.015H.131v5.053h23.21z"/><path id="path-5" d="M15.154 4.012V.109H.149v3.903h15.005z"/><path id="path-7" d="M50.533 51.313V.63H0v60.703h50.533v-10.02h-9.935v10.02h9.935v-10.02z"/></defs><g id="Page-1" stroke="none" stroke-width="1" fill="none" fill-rule="evenodd"><g id="Blue" transform="translate(-131 -1055)"><g id="Group-10" transform="translate(131 1055)"><g id="Group-8"><g id="Page-1" transform="translate(59 55)"><g id="Group-3" transform="translate(5.462 .03)"><mask id="mask-2" fill="#fff"><use xlink:href="#path-1"/></mask><path d="M4.382 1.266C4.88.56 5.766.226 6.614.29 17.47.282 28.324.195 39.182.21c1.879-.111 3.13 2.385 1.858 3.793-.746 1.073-2.154.99-3.309.955-1.348-.003-2.7-.024-4.046.002-1.216.002-2.23 1.171-2.147 2.363-.048.77.563 1.313.912 1.934-1.98 1.671-4 3.297-5.959 4.992-1.408.199-2.85-.121-4.248.154-1.332.353-2.028 1.948-1.463 3.185.382.849 1.297 1.41 2.235 1.344 3.479 0 6.96-.005 10.442-.007.893.014 1.812-.104 2.68.163-4.376.09-8.757.072-13.134.126-.497-.014-.931.242-1.297.548-1.565 1.294-3.09 2.637-4.688 3.894-.943.09-1.89.014-2.835.023-1.73-.007-3.458-.002-5.187 0-2.142-.007-4.284.003-6.424-.002-.843.017-1.648-.453-2.087-1.161l-.242-.57a3.343 3.343 0 01-.027-1.18c.31-1.021 1.266-1.806 2.356-1.777 1.294.083 2.48-1.04 2.468-2.335.004-1.071-.789-2.09-1.848-2.303-.758-.138-1.534-.04-2.299-.072 1.686-1.637 3.555-3.067 5.346-4.586 1.893-.192 3.81.057 5.704-.118 1.264-.15 2.23-1.444 2-2.695-.171-1.11-1.192-2.005-2.32-2-1.831-.057-3.662.026-5.49-.031-.965-.031-1.986-.778-2.04-1.792-.02-.602-.089-1.278.289-1.792" id="Fill-1" fill="#E1F4FF" mask="url(#mask-2)"/></g><g id="Group-6" transform="translate(31.823 9.273)"><mask id="mask-4" fill="#fff"><use xlink:href="#path-3"/></mask><path d="M.13 5.006C2.09 3.312 4.11 1.686 6.09.015c.562.168 1.123.393 1.723.353 4.356-.01 8.714-.02 13.07-.017 1.001-.057 1.97.588 2.317 1.527.394 1.07-.06 2.35-1.074 2.896-.743.403-1.624.265-2.434.291C13.171 5.03 6.65 5.09.131 5.006" id="Fill-4" fill="#D4EFFE" mask="url(#mask-4)"/></g><g id="Group-9" transform="translate(0 9.51)" fill="#EAF8FF"><path d="M.25 3.508C-.615 1.898.903-.18 2.703.124c2.895.04 5.79-.005 8.685.026l.313.064C9.911 1.733 8.041 3.162 6.355 4.8c-.612.005-1.225-.002-1.835.005-1.487-.033-3.48.353-4.27-1.297" id="Fill-7"/></g><path d="M27.168 19.792c.366-.306.8-.562 1.297-.548 4.377-.054 8.758-.035 13.135-.125 1.107.34 1.824 1.564 1.582 2.697-.195 1.085-1.242 1.943-2.351 1.894-6.118.004-12.233-.015-18.35-.024 1.598-1.256 3.122-2.6 4.687-3.894" id="Fill-10" fill="#D3EFFE"/></g><g id="Page-1" transform="translate(15 59)" fill="#EFF9FF"><path d="M16.475 0c.555 1.583.797 3.283 1.325 4.883-2.148.172-4.308.045-6.46.074-1.47.125-2.83-1.334-2.525-2.792.157-1.09 1.14-2.035 2.262-2.033 1.798-.075 3.603.1 5.398-.132" id="Fill-1"/><path d="M1.432.287C2.19.015 3.03.07 3.82.163c1.677.182 2.55 2.45 1.52 3.76-.703 1.237-2.313 1.127-3.525.974C.327 4.567-.458 2.677.282 1.365.585.935.967.542 1.432.288" id="Fill-3"/></g><g id="Page-1" transform="translate(29 24)"><g id="Group-3" transform="translate(4.101 .087)"><mask id="mask-6" fill="#fff"><use xlink:href="#path-5"/></mask><path d="M1.38.27A3.367 3.367 0 012.484.124c3.58 0 7.161-.027 10.74-.007 1.075-.038 2.01.981 1.924 2.051-.037.99-.922 1.865-1.916 1.838-3.71.01-7.422.006-11.135-.002a1.947 1.947 0 01-1.783-1.05C-.1 1.961.265.59 1.38.27" id="Fill-1" fill="#C7EBFE" mask="url(#mask-6)"/></g><path d="M1.568 8.035c1.023-.063 2.052-.047 3.078-.03 1.052.015 1.915 1.061 1.802 2.104-.07.916-.865 1.73-1.787 1.76-.921.034-1.843.02-2.763.01-.969.016-1.85-.824-1.89-1.796-.09-.948.626-1.894 1.56-2.048" id="Fill-4" fill="#C6EBFE"/></g><g id="Page-1" transform="translate(88 50)"><path d="M41.396.931c1.67-.873 3.98.534 3.815 2.467.172 2.093-2.61 3.507-4.2 2.173-1.681-1.06-1.403-3.84.385-4.64" id="Fill-1" fill="#FEBF2D"/><path d="M5.252 35.885c.61-1.187.583-3.114 2.239-3.307.841 1.94 1.258 4.44 3.404 5.407 1.06.773 3.067.46 3.286 2.066-1.232.947-2.822 1.174-4.133 1.954-1.563 1.126-1.802 3.2-2.557 4.853-2.133-.487-1.503-3.333-2.881-4.627C3.358 40.765.477 41.478 0 39.318c1.841-.92 4.497-1.173 5.252-3.433" id="Fill-3" fill="#90DFFE"/><g id="Group-7" transform="translate(0 .036)"><mask id="mask-8" fill="#fff"><use xlink:href="#path-7"/></mask><path d="M44.688 54.175c-1.504.533-1.987 2.7-.802 3.8 1.047 1.22 3.22.78 3.776-.713.9-1.78-1.186-3.927-2.974-3.087m-1.179-2.38c3.464-1.807 7.855 1.78 6.888 5.56-.57 3.573-5.365 5.273-8.02 2.833-2.835-2.146-2.153-7.08 1.132-8.393" id="Fill-5" fill="#9C85BA" mask="url(#mask-8)"/></g></g><g id="Group-3" transform="translate(0 30)" fill="#FD7661"><path d="M3.232 1.977C3.224 1.313 2.984-.031 4 0c1.212-.012.768 1.584.772 2.364-.404.676-1.596.456-1.54-.388" id="Fill-1"/><path d="M.484 3.213c.76.004 2.272-.408 2.308.748.032 1.048-1.288.812-1.972.804-.856.076-1.104-1.232-.336-1.552" id="Fill-3"/><path d="M5.656 3.217c.772-.004 2.336-.416 2.336.78-.004 1.024-1.316.768-1.996.764-.828.06-1.064-1.192-.34-1.544" id="Fill-5"/><path d="M3.704 5.217c1.46-.344 1.48 2.116.64 2.708-1.46.344-1.492-2.108-.64-2.708" id="Fill-7"/></g><path d="M52.743.214c1.677-.978 3.22 1.663 1.514 2.577-1.69.966-3.215-1.681-1.514-2.577" id="Fill-9" fill="#BDAED2"/><path d="M108.7 13.151c-1.827.87-.166 3.818 1.54 2.727 1.904-.881.185-3.874-1.54-2.727m-.611-1.839c2.304-1.135 5.232 1.002 4.882 3.52-.127 2.613-3.571 4.154-5.595 2.454-2.14-1.44-1.694-5.067.713-5.974" id="Fill-1" fill="#4DCCFD"/><path d="M3.145 57.063c1.427-.376 2.92.991 2.853 2.43.05 1.339-1.173 2.53-2.499 2.505-1.444.058-2.798-1.424-2.441-2.863 1.24-.794.8 1.174 1.63 1.521 1.086.891 2.784-.55 2.09-1.771-.2-1.06-2.458-.516-1.633-1.822" id="Fill-1" fill="#7ED536"/><g id="Group-13" transform="translate(29 81)" fill="#FEBF2D"><path d="M3.08 2.452C3.464 1.83 3.413.447 4.467.601c.47 1.993 1.864 3.484 3.896 3.902.347 1.086-1.209 1.016-1.8 1.42-1.395.36-1.53 1.987-2.09 3.074-1.221.09-1.035-1.608-1.549-2.347C2.385 5.37-.006 6.052 0 4.51c1.08-.553 2.68-.688 3.08-2.058" id="Fill-11"/></g><path d="M101.508 36.111c1.736-.169 3.49-.096 5.236-.09 1.366-.013 2.64.853 3.078 2.02.598 1.477-.372 3.262-2.004 3.769-1.214.32-2.503.12-3.747.175-1.519.03-3.354.132-4.358-1.131-1.519-1.571-.468-4.354 1.795-4.743" id="Fill-3" fill="#D0EEFE"/></g></g></g></g></svg>
